X:132
T:Glorishear - Field Town
M:6/8
L:1/8
K:G
d/2c/2 | BAG GFG | ABA D2 G | ABA Adc | BcA GAB |
cde def | def g2 f | edc BcA | GAG G3 ||
e2 d dAB | cdc cAB | cde edc | GAG FED |
G2 g gfg | G2 g g2 f | edc BcA | GAG G3 ||
